X:1
T:Title
%%score { ( 1 3 ) | ( 2 4 ) }
L:1/8
M:4/4
K:F
V:1 treble nm="Grand Piano"
V:3 treble 
V:2 bass 
V:4 bass 
V:1
 z4 z2[Q:1/4=100] CF | AAGF AAAc |[M:3/4] cE EE E2 |[M:1/4] [EG][FA] | %4
[M:4/4] [GB][^FA][GB][GB] [Bd][Bd][Ac][GB] | A6 AB | c=Bcd cAGA | B[GB][GB][FB] [EB]2 [EA][EG] | %8
 [CFA][CFA][CFA][DFA] [DF=B][DFB][=B,FA][DFB] |[M:7/8] c-c-c- c- c3 |[M:1/4] cc |[M:4/4] E6 z2 | %12
 .F2 ED C2 AA | [FA]3 [FA] [FG]2 [FA]2 | G-[EG-][EG-][EG-] G-[B,G]AB | c6 z2 | d6 z2 | %17
 [Fc]3 [Fd] [FA]2 G2 |[M:3/4] F6 |] %19
V:2
 z4 z2 [F,A,][F,A,C] | [F,CF][F,CF][F,B,C][F,A,C] [F,CF][F,CF][F,CF][F,A,F] | %2
[M:3/4] [G,B,E][G,B,C] [G,B,C][G,B,C] [G,B,C]2 |[M:1/4] [C,C][C,C] | %4
[M:4/4] [C,C][C,C][C,C][C,C] [C,C][C,C][D,C][E,C] | [F,CF]6 [F,CF][F,G,F] | %6
 [F,A,F][F,_A,F][F,=A,F][F,B,F] [F,A,F][F,CF][B,DF][A,DF] | %7
 [G,DG][K:bass][F,^C][E,=C][D,C] [C,C]2 [C,C][C,C] | F,F,F,D, G,G,G,G, |[M:7/8] z G,G, A, B,3 | %10
[M:1/4] z2 |[M:4/4] z2 [C,B,][C,B,] [C,B,][C,B,C][C,A,C][C,B,C] | %12
 [F,A,C][F,D][F,C][F,B,] [F,A,]2 [F,CF][F,CF] | [D,D]3 [D,D] [G,=B,]2 [G,B,]2 | %14
 [C,C][C,C][E,C][K:treble][G,C] C2 [A,CF][G,CE] | %15
 [F,A,F][K:bass][F,A,][C,B,][C,B,] [F,A,][F,A,F][K:treble][A,CF][A,CF] | %16
 [B,F]B,B,[K:bass]B, B,2 [B,,B,][B,,B,] | [C,A,]3 [C,B,] [C,C]2 [C,B,C]2 |[M:3/4] [F,A,C]6 |] %19
V:3
 x8 | x8 |[M:3/4] x6 |[M:1/4] x2 |[M:4/4] x8 | x8 | x8 | x8 | x8 |[M:7/8] [CE]EE F G3 |[M:1/4] x2 | %11
[M:4/4] z2 CC CEFG | z F3- F2 z2 | x8 | .E2 z2 E2 z2 | z FEE Ffe_e | z BAG F2 [Fd][Fd] | x8 | %18
[M:3/4] x6 |] %19
V:4
 x8 | x8 |[M:3/4] x6 |[M:1/4] x2 |[M:4/4] x8 | x8 | x8 | x[K:bass] x7 | x8 | %9
[M:7/8] C,-C,-C,- C,- C,3 |[M:1/4] x2 |[M:4/4] x8 | x8 | x8 | x3[K:treble] x5 | %15
 x[K:bass] x5[K:treble] x2 | x3[K:bass] x5 | x8 |[M:3/4] x6 |] %19

